app/assets/images/heroicon/solid/heart.svg

<svg width="24" height="24" viewBox="0 0 24 24" fill="none" xmlns="http://www.w3.org/2000/svg">
<path d="M11.645 20.9107L11.6384 20.9072L11.6158 20.8949C11.5965 20.8844 11.5689 20.8693 11.5336 20.8496C11.4629 20.8101 11.3612 20.7524 11.233 20.6769C10.9765 20.5261 10.6132 20.3039 10.1785 20.015C9.31074 19.4381 8.15122 18.5901 6.9886 17.5063C4.68781 15.3615 2.25 12.1751 2.25 8.25C2.25 5.32194 4.7136 3 7.6875 3C9.43638 3 11.0023 3.79909 12 5.0516C12.9977 3.79909 14.5636 3 16.3125 3C19.2864 3 21.75 5.32194 21.75 8.25C21.75 12.1751 19.3122 15.3615 17.0114 17.5063C15.8488 18.5901 14.6893 19.4381 13.8215 20.015C13.3868 20.3039 13.0235 20.5261 12.767 20.6769C12.6388 20.7524 12.5371 20.8101 12.4664 20.8496C12.4311 20.8693 12.4035 20.8844 12.3842 20.8949L12.3616 20.9072L12.355 20.9107L12.3523 20.9121C12.1323 21.0289 11.8677 21.0289 11.6477 20.9121L11.645 20.9107Z" fill="#0F172A"/>
</svg>

<svg xmlns="http://www.w3.org/2000/svg" viewBox="0 0 24 24" fill="currentColor" aria-hidden="true">
  <path d="M11.645 20.91l-.007-.003-.022-.012a15.247 15.247 0 01-.383-.218 25.18 25.18 0 01-4.244-3.17C4.688 15.36 2.25 12.174 2.25 8.25 2.25 5.322 4.714 3 7.688 3A5.5 5.5 0 0112 5.052 5.5 5.5 0 0116.313 3c2.973 0 5.437 2.322 5.437 5.25 0 3.925-2.438 7.111-4.739 9.256a25.175 25.175 0 01-4.244 3.17 15.247 15.247 0 01-.383.219l-.022.012-.007.004-.003.001a.752.752 0 01-.704 0l-.003-.001z"/>
</svg>
